X: 23
T:Spider In The Bath
M:6/8
L:1/8
Q:100
C:Marcus Turner
K:Am
T:Chorus:
&quot;Am&quot;c3   &quot;E&quot;B3|&quot;Am&quot;A3z2B|c2B A2c|e3z2e|
a2e &quot;Dm&quot;f2d|&quot;Am&quot;ec2 A2B|c3 &quot;E&quot;B3|&quot;Am&quot;A2     &quot;E&quot;e-e3|
&quot;Am&quot;c3  &quot;E&quot;B3|&quot;Am&quot;A3z2B|!
c2B A2c|e3z2e|
a2e &quot;Dm&quot;f2d|&quot;Am&quot;e2c A2B|c2A &quot;E&quot;B2G|&quot;Am&quot;A3z2|
&quot;Am&quot;z6|&quot;Dm&quot;z6|&quot;Am&quot;z3&quot;E&quot;z3|&quot;Am&quot;z3z2|
T:Verse:
A|&quot;C&quot;c2c c2e|g2a g2e|&quot;G&quot;dc2 d2^d|&quot;C&quot;e3-eze|
&quot;F&quot;a2a a2a|&quot;C&quot;g2g gze|&quot;Dm&quot;dc2 d2^d|&quot;E&quot;e3-eze|!
&quot;F&quot;a2a a2a|&quot;C&quot;gg2 g2g|&quot;Dm&quot;f2e f2g|&quot;C&quot;e3-eze|
&quot;F&quot;a2a a2a|&quot;C&quot;gg g- g ze|&quot;Dm&quot;dc2 d2^d|&quot;E&quot;e3 z3|z3 e3:||
